humanity-icon-theme/Humanity/apps/16/wmtweaks.svg

<?xml version="1.0" encoding="UTF-8" standalone="no"?>
<!-- Created with Inkscape (http://www.inkscape.org/) -->

<svg
   xmlns:svg="http://www.w3.org/2000/svg"
   xmlns="http://www.w3.org/2000/svg"
   xmlns:xlink="http://www.w3.org/1999/xlink"
   version="1.0"
   width="16"
   height="16"
   id="svg2">
  <defs
     id="defs4">
    <linearGradient
       id="linearGradient6457">
      <stop
         id="stop6459"
         style="stop-color:white;stop-opacity:0.94117647"
         offset="0" />
      <stop
         id="stop6461"
         style="stop-color:white;stop-opacity:0.70588237"
         offset="1" />
    </linearGradient>
    <linearGradient
       id="linearGradient2781">
      <stop
         id="stop2783"
         style="stop-color:#505050;stop-opacity:1"
         offset="0" />
      <stop
         id="stop6301"
         style="stop-color:#6e6e6e;stop-opacity:1"
         offset="0.13216467" />
      <stop
         id="stop2785"
         style="stop-color:#8c8c8c;stop-opacity:1"
         offset="1" />
    </linearGradient>
    <linearGradient
       id="linearGradient4222">
      <stop
         id="stop4224"
         style="stop-color:white;stop-opacity:1"
         offset="0" />
      <stop
         id="stop4226"
         style="stop-color:white;stop-opacity:0"
         offset="1" />
    </linearGradient>
    <linearGradient
       x1="24"
       y1="13"
       x2="24"
       y2="40"
       id="linearGradient2864"
       xlink:href="#linearGradient6457"
       gradientUnits="userSpaceOnUse"
       gradientTransform="matrix(0.368421,0,0,0.3333334,-0.8421051,0.6666664)" />
    <linearGradient
       x1="15.461214"
       y1="8.2910967"
       x2="15.461214"
       y2="17.95812"
       id="linearGradient2867"
       xlink:href="#linearGradient4222"
       gradientUnits="userSpaceOnUse"
       gradientTransform="matrix(0.4193406,0,0,0.4137778,-2.4835146,-2.4306718)" />
    <linearGradient
       x1="21.866402"
       y1="8.5763302"
       x2="21.780495"
       y2="39.923653"
       id="linearGradient2870"
       xlink:href="#linearGradient2781"
       gradientUnits="userSpaceOnUse"
       gradientTransform="matrix(0.4545362,0,0,0.4590071,-3.3634134,-3.6309208)" />
    <linearGradient
       id="linearGradient7839">
      <stop
         id="stop7841"
         style="stop-color:white;stop-opacity:1"
         offset="0" />
      <stop
         id="stop7843"
         style="stop-color:black;stop-opacity:1"
         offset="1" />
    </linearGradient>
    <linearGradient
       id="linearGradient3950">
      <stop
         id="stop3952"
         style="stop-color:#eeeeec;stop-opacity:1"
         offset="0" />
      <stop
         id="stop3954"
         style="stop-color:white;stop-opacity:1"
         offset="1" />
    </linearGradient>
    <linearGradient
       id="linearGradient3958">
      <stop
         id="stop3960"
         style="stop-color:#555753;stop-opacity:1"
         offset="0" />
      <stop
         id="stop3962"
         style="stop-color:#888a85;stop-opacity:1"
         offset="1" />
    </linearGradient>
    <linearGradient
       id="linearGradient3969">
      <stop
         id="stop3971"
         style="stop-color:white;stop-opacity:1"
         offset="0" />
      <stop
         id="stop3973"
         style="stop-color:white;stop-opacity:0"
         offset="1" />
    </linearGradient>
    <radialGradient
       cx="307.65778"
       cy="223.93007"
       r="2.2700634"
       fx="307.65778"
       fy="223.93007"
       id="radialGradient6621"
       xlink:href="#linearGradient3969"
       gradientUnits="userSpaceOnUse"
       gradientTransform="matrix(1.9522293,-1.9522293,1.4892817,1.4892819,-626.26973,490.96044)" />
    <linearGradient
       x1="314.09293"
       y1="230.78207"
       x2="315.01315"
       y2="229.86185"
       id="linearGradient6674"
       xlink:href="#linearGradient3950"
       gradientUnits="userSpaceOnUse" />
    <linearGradient
       x1="312.8125"
       y1="234.125"
       x2="311"
       y2="220.60095"
       id="linearGradient6676"
       xlink:href="#linearGradient3958"
       gradientUnits="userSpaceOnUse" />
    <linearGradient
       x1="312.99573"
       y1="1137.9355"
       x2="314.39734"
       y2="1140"
       id="linearGradient6687"
       xlink:href="#linearGradient7839"
       gradientUnits="userSpaceOnUse"
       gradientTransform="translate(-0.9375,-910.94071)" />
    <mask
       id="mask6683">
      <rect
         width="16"
         height="16"
         x="299.0625"
         y="213.0593"
         id="rect6685"
         style="fill:url(#linearGradient6687);fill-opacity:1;fill-rule:nonzero;stroke:none;visibility:visible;display:inline" />
    </mask>
  </defs>
  <rect
     width="14.999712"
     height="13.999712"
     x="0.500144"
     y="0.500144"
     id="rect1887"
     style="fill:url(#linearGradient2870);fill-opacity:1;stroke:#565853;stroke-width:1.00028801;stroke-linejoin:round;stroke-miterlimit:4;stroke-opacity:1;stroke-dasharray:none" />
  <rect
     width="12.999558"
     height="11.999559"
     x="1.5002205"
     y="1.5002201"
     id="rect2779"
     style="opacity:0.2;fill:none;stroke:url(#linearGradient2867);stroke-width:1.00044096;stroke-miterlimit:4;stroke-opacity:1;stroke-dasharray:none" />
  <rect
     width="14"
     height="9"
     x="0.99999988"
     y="5"
     id="rect6287"
     style="fill:url(#linearGradient2864);fill-opacity:1;stroke:none" />
  <path
     d="M 14,3.2500003 C 14.000178,3.664161 13.664339,4 13.25,4 12.835658,4 12.499819,3.664161 12.5,3.2500003 12.499819,2.8358394 12.835658,2.5 13.25,2.5 c 0.414339,0 0.750178,0.3358394 0.75,0.7500003 l 0,0 z"
     id="path6293"
     style="fill:#ffc24c;fill-opacity:1;stroke:none" />
  <path
     d="M 12,3.2500003 C 12.000178,3.664161 11.664339,4 11.25,4 10.835658,4 10.499819,3.664161 10.5,3.2500003 10.499819,2.8358394 10.835658,2.5 11.25,2.5 c 0.414339,0 0.750178,0.3358394 0.75,0.7500003 l 0,0 z"
     id="path6302"
     style="fill:#ffc24c;fill-opacity:1;stroke:none" />
  <path
     d="M 10,3.2500003 C 10.000178,3.664161 9.6643391,4 9.2500001,4 8.8356581,4 8.4998191,3.664161 8.5000001,3.2500003 8.4998191,2.8358394 8.8356581,2.5 9.2500001,2.5 9.6643391,2.5 10.000178,2.8358394 10,3.2500003 l 0,0 z"
     id="path6304"
     style="fill:#ffc24c;fill-opacity:1;stroke:none" />
  <g
     transform="translate(-298.05823,-212.99489)"
     mask="url(#mask6683)"
     id="g7817"
     style="display:inline;enable-background:new">
    <path
       d="m 306.75,219.5 c -0.37511,0.0471 -0.77839,0.25308 -1.1875,0.65625 l 1.71875,1.6875 c 0.3584,0.36046 0.34912,0.93023 0,1.28125 l -0.125,0.125 c -0.34912,0.35106 -0.92283,0.36044 -1.28125,0 l -1.6875,-1.6875 c -1.15661,1.13978 -0.64599,2.06839 0.125,2.84375 l 0.46875,0.46875 c 0.73274,0.7369 1.86697,0.81164 2.6875,0.21875 l 5.4375,5.4375 1.625,-1.62505 -5.4375,-5.4375 c 0.59284,-0.82529 0.54644,-1.98062 -0.1875,-2.71875 l -0.46875,-0.5 c -0.48639,-0.48917 -1.06232,-0.82854 -1.6875,-0.75 l 0,5e-5 z"
       id="path3935"
       style="fill:url(#linearGradient6674);fill-opacity:1;fill-rule:evenodd;stroke:url(#linearGradient6676);stroke-width:0.89999998;stroke-linecap:round;stroke-linejoin:round;stroke-miterlimit:4;stroke-opacity:1;stroke-dasharray:none;stroke-dashoffset:0.3612;display:inline;enable-background:new" />
    <path
       d="m 305.21569,223.99896 c 1.74834,1.52344 4.48908,-1.00133 2.72395,-2.92439"
       id="path3967"
       style="fill:none;stroke:url(#radialGradient6621);stroke-width:1px;stroke-linecap:butt;stroke-linejoin:miter;stroke-opacity:1;display:inline;enable-background:new" />
  </g>
</svg>

<?xml version="1.0" encoding="UTF-8" standalone="no"?>
<!-- Created with Inkscape (http://www.inkscape.org/) -->
<svg id="svg2" xmlns="http://www.w3.org/2000/svg" height="16" width="16" version="1.0" xmlns:xlink="http://www.w3.org/1999/xlink">
 <defs id="defs4">
  <linearGradient id="linearGradient2864" y2="40" gradientUnits="userSpaceOnUse" x2="24" gradientTransform="matrix(.36842 0 0 .33333 -.84211 .66667)" y1="13" x1="24">
   <stop id="stop6459" style="stop-color:#fff;stop-opacity:.94118" offset="0"/>
   <stop id="stop6461" style="stop-color:#fff;stop-opacity:.70588" offset="1"/>
  </linearGradient>
  <linearGradient id="linearGradient2867" y2="17.958" gradientUnits="userSpaceOnUse" x2="15.461" gradientTransform="matrix(.41934 0 0 .41378 -2.4835 -2.4307)" y1="8.2911" x1="15.461">
   <stop id="stop4224" style="stop-color:#fff" offset="0"/>
   <stop id="stop4226" style="stop-color:#fff;stop-opacity:0" offset="1"/>
  </linearGradient>
  <linearGradient id="linearGradient2870" y2="39.924" gradientUnits="userSpaceOnUse" x2="21.78" gradientTransform="matrix(.45454 0 0 .45901 -3.3634 -3.6309)" y1="8.5763" x1="21.866">
   <stop id="stop2783" style="stop-color:#505050" offset="0"/>
   <stop id="stop6301" style="stop-color:#6e6e6e" offset=".13216"/>
   <stop id="stop2785" style="stop-color:#8c8c8c" offset="1"/>
  </linearGradient>
  <radialGradient id="radialGradient6621" gradientUnits="userSpaceOnUse" cy="223.93" cx="307.66" gradientTransform="matrix(1.9522 -1.9522 1.4893 1.4893 -626.27 490.96)" r="2.2701">
   <stop id="stop3971" style="stop-color:#fff" offset="0"/>
   <stop id="stop3973" style="stop-color:#fff;stop-opacity:0" offset="1"/>
  </radialGradient>
  <linearGradient id="linearGradient6674" y2="229.86" gradientUnits="userSpaceOnUse" x2="315.01" y1="230.78" x1="314.09">
   <stop id="stop3952" style="stop-color:#eeeeec" offset="0"/>
   <stop id="stop3954" style="stop-color:#fff" offset="1"/>
  </linearGradient>
  <linearGradient id="linearGradient6676" y2="220.6" gradientUnits="userSpaceOnUse" x2="311" y1="234.12" x1="312.81">
   <stop id="stop3960" style="stop-color:#555753" offset="0"/>
   <stop id="stop3962" style="stop-color:#888a85" offset="1"/>
  </linearGradient>
  <linearGradient id="linearGradient6687" y2="1140" gradientUnits="userSpaceOnUse" x2="314.4" gradientTransform="translate(-.9375 -910.94)" y1="1137.9" x1="313">
   <stop id="stop7841" style="stop-color:#fff" offset="0"/>
   <stop id="stop7843" offset="1"/>
  </linearGradient>
  <mask id="mask6683">
   <rect id="rect6685" style="fill:url(#linearGradient6687)" height="16" width="16" y="213.06" x="299.06"/>
  </mask>
 </defs>
 <rect id="rect1887" style="stroke-linejoin:round;stroke:#565853;stroke-width:1.0003;fill:url(#linearGradient2870)" height="14" width="15" y=".50014" x=".50014"/>
 <rect id="rect2779" style="opacity:.2;stroke:url(#linearGradient2867);stroke-width:1.0004;fill:none" height="12" width="13" y="1.5002" x="1.5002"/>
 <rect id="rect6287" style="fill:url(#linearGradient2864)" height="9" width="14" y="5" x="1"/>
 <path id="path6293" style="fill:#ffc24c" d="m14 3.25c0 0.4142-0.336 0.75-0.75 0.75s-0.75-0.3358-0.75-0.75 0.336-0.75 0.75-0.75c0.41434 0 0.75018 0.33584 0.75 0.75z"/>
 <path id="path6302" style="fill:#ffc24c" d="m12 3.25c0 0.4142-0.336 0.75-0.75 0.75s-0.75-0.3358-0.75-0.75 0.336-0.75 0.75-0.75c0.41434 0 0.75018 0.33584 0.75 0.75z"/>
 <path id="path6304" style="fill:#ffc24c" d="m10 3.25c0 0.4142-0.3357 0.75-0.75 0.75s-0.7502-0.3358-0.75-0.75c-0.0002-0.4142 0.3357-0.75 0.75-0.75s0.75 0.3358 0.75 0.75z"/>
 <g id="g7817" style="enable-background:new" mask="url(#mask6683)" transform="translate(-298.06 -212.99)">
  <path id="path3935" style="stroke-linejoin:round;stroke-width:0.9;fill-rule:evenodd;stroke-dashoffset:.3612;stroke:url(#linearGradient6676);stroke-linecap:round;enable-background:new;fill:url(#linearGradient6674)" d="m306.75 219.5c-0.37511 0.0471-0.77839 0.25308-1.1875 0.65625l1.7188 1.6875c0.3584 0.36046 0.34912 0.93023 0 1.2812l-0.125 0.125c-0.34912 0.35106-0.92283 0.36044-1.2812 0l-1.6875-1.6875c-1.1566 1.1398-0.64599 2.0684 0.125 2.8438l0.46875 0.46875c0.73274 0.7369 1.867 0.81164 2.6875 0.21875l5.4375 5.4375 1.625-1.625-5.4375-5.4375c0.59284-0.82529 0.54644-1.9806-0.1875-2.7188l-0.46875-0.5c-0.48639-0.48917-1.0623-0.82854-1.6875-0.75v0.00005z"/>
  <path id="path3967" style="stroke-width:1px;stroke:url(#radialGradient6621);enable-background:new;fill:none" d="m305.22 224c1.7483 1.5234 4.4891-1.0013 2.724-2.9244"/>
 </g>
</svg>
